X: 311
T: The man in the moon
C: anon.
O: Ireland
B: Francis O'Neill: "The Dance Music of Ireland" (1907) no. 311
R: Double jig
Z: Transcribed by Frank Nordberg - http://www.musicaviva.com
F: http://www.musicaviva.com/abc/tunes/ireland/oneill-1001/oneill-1001-031
1.abc
m: Tn2 = (3n/o/n/ m/n/
M: 6/8
L: 1/8
K: Em
(d/c/)|BGE EFA|BAB (Td2B)|AFD DFA|DFA dfd|BGE EFA|BAB def|edB AdF|({G}F)E
E E2:|
|:(3B/c/d/|efe edB|def (Tg2e)|ded dcB|def gbg|(e/f/g).e edB|def ({a}g)fg|
edB AdF|({G}F)EE E2:|
W:
W:
W: From Musica Viva - http://www.musicaviva.com
W: the Internet center for free sheet music downloads.


